!!!COM: Richard Strauss
!!!CNT: Deutscher
!!!TXO: Deutsche
!!!OTL: Scho2n sind, doch kalt die Himmelssterne�
!!!OPS: Opus 19
!!!ONM: No. 3
!!!LYR: A. Fr. Graf v. Schack
!!!ENC: Brian Bice
!!!YOR: Lieder, Complete Edition, vol. 1
!!!ODT: 1888/
!!NB: Vocal melody and text only encoded.
**kern	**silbe
*clefG2	*
*k[b-e-]	*
*M3/8	*
=1	=1
{8b-	{Scho2n
8b-	sind,
16r	.
16dd	doch
=2	=2
4b-	kalt
8b-	die
=3	=3
4cc	Him-
8cc	-mels-
=4	=4
8ee-	-ster-
8dd-}	-ne,}
16r	.
{16dd-	{die
=5	=5
4dd-	Ga-
8een	-ben
=6	=6
4.ff	karg,
=7	=7
8.cc	die
16dd	sie
8cc	ver-
=8	=8
4cc}	-leih'n;}
{8ff	{fu2r
=9	=9
[4.ff	ei-
=10	=10
4ff]	|
8ee-	-nen
=11	=11
(8dd	die-
8cc)	|
8bn	-ner
=12	=12
4dd	Blik-
8cc	-cke
=13	=13
4gg	ger-
8ee-}	-ne}
=14	=14
{8dd	{hin
16cc	geb'
16dd	ich
16ee-	ih-
16cc	-ren
=15	=15
(8b-	gold'-
8cc)	|
8a	-nen
=16	=16
4b-}	Schein.}
16.r	.
{32b-	{Ge-
=17	=17
[4b-	-trennt,
16b-]	|
16f	so
=18	=18
16f	dass
16g	wir
8.a-	e-
16b-	-wig
=19	=19
(8.cc	dar-
16dd-)	|
8cc}	-ben,}
=20	=20
16r	.
{16f	{nir
16g	fu2h-
16an	-ren
16b-	sie
16cc	im
=21	=21
8.dd-	Jah-
16b-	-res-
8f}	-lauf}
=22	=22
16r	.
{16b-	{den
16cc	Herbst
16ddn	mit
16ee-	sei-
16ff	-nen
=23	=23
4aa-	Aeh-
8gg-	-ren-
=24	=24
4ff	-gar-
8ee-}	-ben,}
=25	=25
16r	.
{16g-	{des
8.ff-	Fru2h-
16ee-	-lings
=26	=26
16ee-	Blu2-
16dd-	-ten
8cc-	pracht
8dd-	her-
=27	=27
[4.ee-	-auf;
=28	=28
8ee-]}	|}
8r	.
{8ee-	{doch
=29	=29
4aa-	dei-
8ee-	-ne
=30	=30
(8.cc	Au-
16dd-)	|
8cc	-gen,
=31	=31
8r	.
8.cc	o,
16b-	der
=32	=32
4ff	Se-
16cc}	-gen}
{16ff	{des
=33	=33
4bb-	gan-
8ff	-zen
=34	=34
4dd	Jah-
8cc	-res
=35	=35
16r	.
16b-	quilt
16cc	u2-
16dd	-ber-
16ee-}	-reich}
{16ff	{aus
=36	=36
4ff#	ih-
8gg	-nen
=37	=37
16gg	stets
16gg	als
(16ffn	mil-
16gg	|
16ffn)	|
16ee-	-der
=38	=38
4dd	Re-
8cc}	-gen,}
=40	=40
4r	.
16r	.
{16gg	{die
=41	=41
(8.gg	Blu2-
16ff)	|
16cc	-te
16dd	und
=42	=42
4ee-	Frucht
8ff	zu-
=43	=43
4.b-}	-gleich.}
*-	*-
